X: 392
T: Bill Malley's Barndance
B: jims roots
M:4/4
L:1/8
R: barndance
Q: 1/4=100
K:G
V:1 
%D:Calua: bo/thar gan briseadh/down the line
%N:http://www.youtube.com/watch?v=rnKgA8uvRt4
%Q:1/4=170
"G"G3 A B2 GB | "D"dedB "Em"G3 A | "G"B2 G2 "Em"d2 G2 | "Am"BAGB "D"A3 F |
"G"G3 A B2 GB | "D"dedB "Em"G2 Ac | "G"B2 AG "C/D"E2 (3DEF |1 "G"GBAF GDEF :|2 "G"GBAF G2 g2||
|: "G"e2 d2 g3 e | "D"dedB "Em"G3 g | "G"e2 d2 "Em"g3 d | "Am"BAGB "D"A2 g2 |
"G"e2 d2 gfge | "D"dedB "Em"G2 Ac | "G"B2 AG "C/D"E2 (3DEF |[1 "G"GBAF G2 g2 :|[2 "G"GBAF G3 ||
% abcbook-tune_id 6298c2454848ab623bb71ac2


% abcbook-boost 0
% abcbook-tablature 
% abcbook-transpose 
% abcbook-lastupdated 1654178373329
% abcbook-soundfonts 
% abcbook-repeats 1


